material/.icons/material/upload-outline.svg

<svg xmlns="http://www.w3.org/2000/svg" viewBox="0 0 24 24"><path d="M9 10v6h6v-6h4l-7-7-7 7h4m3-4.2L14.2 8H13v6h-2V8H9.8L12 5.8M19 18H5v2h14v-2z"/></svg>

<?xml version="1.0" encoding="UTF-8"?><!DOCTYPE svg PUBLIC "-//W3C//DTD SVG 1.1//EN" "http://www.w3.org/Graphics/SVG/1.1/DTD/svg11.dtd"><svg xmlns="http://www.w3.org/2000/svg" xmlns:xlink="http://www.w3.org/1999/xlink" version="1.1" id="mdi-upload-outline" width="24" height="24" viewBox="0 0 24 24"><path d="M9,10V16H15V10H19L12,3L5,10H9M12,5.8L14.2,8H13V14H11V8H9.8L12,5.8M19,18H5V20H19V18Z" /></svg>
